!!!OTL: Graf und Nonne (Die Nonne) Ich stand auf hohem Berge
!!!ARE: Europa, Suedosteuropa, Rumaenien
!!!YOR: 8, S. 288
!!    ???? aufgezeichnet
!!!SCT: Q01558
!!!YEM: Copyright 1995, estate of Helmut Schaffrath.
**kern
*ICvox
*Ivox
*M2/4
*k[f#]
*G:
{8d
=1
8g
8g
8f#
8e
=2
4e
8d}
{8d
=3
8g
8g
8a
8cc
=4
4b
4r}
=5
{2d
=6
8b
8a
8b
8dd
=7
4dd
8cc}
{8b
=8
8a
8d
8d
8cc
=9
4cc
8b}
{8a
=10
8g
8d
8b
8a
=11
4g
4r}
=12
{2d
=13
8b
8a
8b
8dd
=14
4dd
8cc}
{8b
=15
8a
8d
8d
8cc
=16
4cc
8b}
{8a
=17
8g
8d
8b
8a
=18
4g
8r}
==
!!!AGN: Ballade, Standesunterschied, vergebliche Werbung, Liebes - Lied
!! Fermatenton zu Beginn der dritten und sechsten Zeile entsprechend
!!    der Taktart zur Halben verlaengert.
!!!ONB: ESAC (Essen Associative Code) Database: BALLADE
!!!AMT: simple duple
!!!AIN: vox
!!!EED: Helmut Schaffrath
!!!EEV: 1.0
*-
